X: 1
T:Nail That Catfish to the Tree
M:2/4
L:1/16
C:Steve Rosen
O:American
A:Chicago
N:Merriweather: Peter Martin - hammered dulcimer, flute, whistle; Bill
N:Paine - mandolin, bouzouki, guitar
D:Merriweather - "The Wren's Dilemma"
Z:Transcribed from sound by Jonathan Whitall
K:G
|G2B2 A2B2|cBAG B2G2|ABAG F2AB|AGF2 E2D2|
G2B2 A2B2|cBAG B2G2|ABAG FEF2|G4 G2D2|
G2B2 A2B2|cBAG B2G2|ABAG F2AB|AGF2 E2D2|
G2B2 A2B2|cBAG B2G2|ABAG FEF2|G4 G2D2|
C4 G4|c6 G2|ABAG F2AB|AGF2 E2D2|
C4 G4|c6 G2|ABAG FEF2|G4 G2D2|
C4 G4|c6 G2|ABAG F2AB|AGF2 E2D2|
C4 G4|c6 Bc|d2c2 B2A2|G8||
